images/telegram.svg

<svg width="24" height="24" viewBox="0 0 24 24" fill="none" xmlns="http://www.w3.org/2000/svg">
<path d="M20.8484 3.5321C20.7483 3.5624 20.6483 3.5927 20.5483 3.63309C14.5658 5.97607 8.59328 8.32915 2.62079 10.6822C2.54076 10.7125 2.45072 10.7529 2.38069 10.7933C2.12059 10.9145 1.99053 11.1266 2.00054 11.4195C2.01054 11.7123 2.17061 11.9042 2.43072 12.0153C2.50074 12.0456 2.58078 12.0658 2.66081 12.086C4.0714 12.5102 5.48199 12.9242 6.89257 13.3383C7.06264 13.3888 7.15268 13.4797 7.2027 13.6513C7.73292 15.3682 8.27315 17.085 8.80337 18.7918C9.06348 19.6199 9.71375 19.7815 10.314 19.1654C11.0143 18.4484 11.7146 17.7314 12.4049 17.0042C12.5549 16.8426 12.645 16.8527 12.815 16.9739C14.2656 18.0545 15.7162 19.125 17.1669 20.2056C17.9472 20.7813 18.7075 20.4884 18.8976 19.5391C20.1281 13.5806 21.1285 8.77351 21.6087 6.47092C21.7488 5.80439 21.8788 5.13785 21.9989 4.56221C22.0289 3.83507 21.4586 3.37052 20.8484 3.5321ZM18.3774 6.95568C17.9072 7.36974 17.447 7.7939 16.9768 8.20796C14.6658 10.2682 12.3548 12.3284 10.0439 14.3886C9.86381 14.5502 9.78378 14.7319 9.75377 14.9743C9.66373 15.8226 9.57369 16.671 9.47365 17.5193C9.46364 17.5799 9.45364 17.6405 9.43363 17.7011C9.42363 17.7314 9.39362 17.7718 9.37361 17.7818C9.32359 17.802 9.29357 17.7617 9.27357 17.7213C9.25356 17.6607 9.23355 17.6001 9.21354 17.5395C8.80337 16.2064 8.3932 14.8834 7.98303 13.5504C7.95302 13.4494 7.93301 13.3383 7.923 13.2979C7.913 12.9949 8.06306 12.8636 8.25314 12.7525C9.44364 12.0052 10.6341 11.268 11.8146 10.5206C13.8555 9.24816 15.8863 7.97568 17.9272 6.6931C17.9872 6.65271 18.0472 6.62241 18.1072 6.58201C18.2273 6.50122 18.3674 6.46083 18.4674 6.60221C18.5674 6.7537 18.4874 6.86479 18.3774 6.95568Z" fill="white"/>
</svg>

<svg width="24" height="24" fill="none" xmlns="http://www.w3.org/2000/svg"><path d="M20.848 3.532c-.1.03-.2.06-.3.101a8900.95 8900.95 0 0 0-17.927 7.05c-.08.03-.17.07-.24.11a.619.619 0 0 0-.38.627c.01.292.17.484.43.595.07.03.15.05.23.071 1.41.424 2.821.838 4.232 1.252.17.05.26.142.31.313.53 1.717 1.07 3.434 1.6 5.14.26.829.91.99 1.511.374.7-.717 1.4-1.434 2.09-2.16.15-.162.241-.152.411-.031 1.45 1.08 2.901 2.151 4.352 3.232.78.575 1.54.282 1.73-.667a7707.8 7707.8 0 0 1 2.712-13.068c.14-.667.27-1.333.39-1.909.03-.727-.54-1.191-1.15-1.03Zm-2.47 3.424c-.47.414-.931.838-1.401 1.252l-6.933 6.18a.868.868 0 0 0-.29.586c-.09.849-.18 1.697-.28 2.545-.01.06-.02.122-.04.182a.17.17 0 0 1-.06.08c-.05.021-.08-.02-.1-.06l-.06-.181c-.41-1.334-.82-2.657-1.231-3.99-.03-.1-.05-.212-.06-.252-.01-.303.14-.434.33-.546 1.19-.747 2.381-1.484 3.562-2.231 2.04-1.273 4.071-2.545 6.112-3.828.06-.04.12-.07.18-.111.12-.08.26-.121.36.02.1.152.02.263-.09.354Z" fill="#fff"/></svg>
